svgs/regular/cake-candles.svg

<svg xmlns="http://www.w3.org/2000/svg" viewBox="0 0 448 512"><!-- Font Awesome Pro 6.0.0-alpha2 by @fontawesome - https://fontawesome.com License - https://fontawesome.com/license (Commercial License) --><path d="M384 224H376V168C376 154.75 365.25 144 352 144S328 154.75 328 168V224H248V168C248 154.75 237.25 144 224 144S200 154.75 200 168V224H120V168C120 154.75 109.25 144 96 144S72 154.75 72 168V224H64C28.654 224 0 252.654 0 288V480C0 497.672 14.328 512 32 512H416C433.674 512 448 497.672 448 480V288C448 252.654 419.348 224 384 224ZM400 464H48V392.434C66.117 389.527 82.434 382.287 96 373.523C113.344 384.711 135.641 394.709 160 394.709S206.656 384.711 224 373.523C241.344 384.711 263.641 394.709 288 394.709S334.656 384.711 352 373.523C365.455 382.203 381.936 390.018 400 393.152V464ZM400 343.811C386.533 339.447 374.205 330.994 366.953 325.227C358.203 318.258 345.797 318.258 337.047 325.227C326.969 333.242 307.203 346.711 288 346.711S249.031 333.242 238.953 325.227C230.203 318.258 217.797 318.258 209.047 325.227C198.969 333.242 179.203 346.711 160 346.711S121.031 333.242 110.953 325.227C102.203 318.258 89.797 318.258 81.047 325.227C73.795 330.994 61.467 339.447 48 343.811V288C48 279.178 55.178 272 64 272H384C392.822 272 400 279.178 400 288V343.811ZM352 112C374.092 112 392 94.092 392 72S352 0 352 0S312 49.908 312 72S329.908 112 352 112ZM224 112C246.092 112 264 94.092 264 72S224 0 224 0S184 49.908 184 72S201.908 112 224 112ZM96 112C118.092 112 136 94.092 136 72S96 0 96 0S56 49.908 56 72S73.908 112 96 112Z"/></svg>

<svg xmlns="http://www.w3.org/2000/svg" viewBox="0 0 448 512"><!--! Font Awesome Pro 6.0.0-alpha3 by @fontawesome - https://fontawesome.com License - https://fontawesome.com/license (Commercial License) --><path d="M383.1 223.1L376 224V168c0-13.25-10.75-24-24-24s-24 10.75-24 24V224h-80V168c0-13.25-10.75-24-24-24S200 154.8 200 168V224h-80V168C120 154.8 109.3 144 96 144S72 154.8 72 168V224L64 223.1c-35.35 0-64 28.65-64 63.1v192C0 497.7 14.33 512 32 512h384c17.67 0 32-14.33 32-32V287.1C448 252.6 419.3 223.1 383.1 223.1zM400 464h-352v-71.57c18.12-2.906 34.43-10.33 48-19.1c17.34 11.19 39.64 21.37 64 21.37s46.66-10.19 64-21.37c17.34 11.19 39.64 21.37 64 21.37s46.66-10.19 64-21.37c13.46 8.68 29.94 16.68 48 19.82V464zM400 343.8c-13.47-4.363-25.79-12.82-33.05-18.58c-8.75-6.969-21.16-6.969-29.91 0C326.1 333.2 307.2 346.7 288 346.7s-38.97-13.47-49.05-21.48c-8.75-6.969-21.16-6.969-29.91 0C198.1 333.2 179.2 346.7 160 346.7s-38.97-13.47-49.05-21.48c-8.75-6.969-21.16-6.969-29.91 0C73.79 330.1 61.47 339.4 48 343.8V288c0-8.822 7.178-16 16-16h320c8.822 0 16 7.178 16 16V343.8zM352 111.1c22.09 0 40-17.88 40-39.97S352 0 352 0s-40 49.91-40 72S329.9 111.1 352 111.1zM224 111.1c22.09 0 40-17.88 40-39.97S224 0 224 0S184 49.91 184 72S201.9 111.1 224 111.1zM96 111.1c22.09 0 40-17.88 40-39.97S96 0 96 0S56 49.91 56 72S73.91 111.1 96 111.1z"/></svg>
